X:1490
T:"The Green Jacket"   (reel)     1490
C:after Mr. Cronin
B:O'Neill's Music Of Ireland (The 1850) Lyon & Healy, Chicago, 1903 edition
Z:FROM O'NEILL'S TO NOTEWORTHY, FROM NOTEWORTHY TO ABC, MIDI AND .TXT BY VINCE
BRENNAN July 2003 (HTTP://WWW.SOSYOURMOM.COM)
I:abc2nwc
M:C|
L:1/8
K:D
D2 (3(FED) AD (3(FED)|ABcd edcA|D2 (3(FED) A2d2|cAGF FDCE|
D2 (3(FED) AD (3(FED)|ABcd edcA|D2 (3(FED) A2d2|cAGE (ED) D2"Fine^"D2||
f3/2d/2 (3(.d.d.d) fddf|e3/2c/2 (3(.c.c.c) efge|f3/2d/2 (3(.d.d.d) fged|cAGE "^shake"(ED) D2|
fede fedf|edcd efge|afge f2ed|cAGE EDC"Da Capo^al Fine"E|]
